svg/white/cix.svg

<svg height="32" viewBox="0 0 32 32" width="32" xmlns="http://www.w3.org/2000/svg"><g fill="#fff" fill-rule="nonzero"><path d="m24.6677122 18.8630181-6.6337122 3.6586486-2.7917143-3.7283334-8.07371427 4.2519445v.9402778l7.83285717-4.125 2.7914285 3.7283333 7.3640733-4.0620141.1453553 1.2695141 1.6188572-2.6352778-.9545715.0111284v-.0255728l-.0473688.026125-2.3100597.0269305zm-8.6677122 13.1369819c-8.836556 0-16-7.163444-16-16s7.163444-16 16-16 16 7.163444 16 16-7.163444 16-16 16zm-1.4442857-14.0422222v-9.31388891h-3.0602857v10.92555551zm8.6537143.4813889v-9.79527781h-3.0602857v11.49555551zm-4.3268572 2.4036111v-10.94916669h-3.0605714v8.10305559l2.404 3.2108333zm-8.6537143-.6063889v-8.9247222h-3.06028567v10.5363889z"/><path d="m18.8825714 20.8427778-.6565714.3647222-2.404-3.2108333v-8.10305559h3.0605714zm-8.6537143-.6063889-3.06028567 1.6116667v-10.5363889h3.06028567z" opacity=".5"/></g></svg>

<svg xmlns="http://www.w3.org/2000/svg" width="32" height="32" viewBox="0 0 32 32">
  <g fill="none" fill-rule="evenodd">
    <path fill="#FFF" fill-rule="nonzero" d="M24.6677122,18.8630181 L18.034,22.5216667 L15.2422857,18.7933333 L7.16857143,23.0452778 L7.16857143,23.9855556 L15.0014286,19.8605556 L17.7928571,23.5888889 L25.1569304,19.5268748 L25.3022857,20.7963889 L26.9211429,18.1611111 L25.9665714,18.1722395 L25.9665714,18.1466667 L25.9192026,18.1727917 L23.6091429,18.1997222 L24.6677122,18.8630181 Z M16,32 C7.163444,32 0,24.836556 0,16 C0,7.163444 7.163444,0 16,0 C24.836556,0 32,7.163444 32,16 C32,24.836556 24.836556,32 16,32 Z M14.5557143,17.9577778 L14.5557143,8.64388889 L11.4954286,8.64388889 L11.4954286,19.5694444 L14.5557143,17.9577778 Z M23.2094286,18.4391667 L23.2094286,8.64388889 L20.1491429,8.64388889 L20.1491429,20.1394444 L23.2094286,18.4391667 Z M18.8825714,20.8427778 L18.8825714,9.89361111 L15.822,9.89361111 L15.822,17.9966667 L18.226,21.2075 L18.8825714,20.8427778 Z M10.2288571,20.2363889 L10.2288571,11.3116667 L7.16857143,11.3116667 L7.16857143,21.8480556 L10.2288571,20.2363889 Z"/>
    <path fill="#FFF" fill-rule="nonzero" d="M18.8825714,20.8427778 L18.226,21.2075 L15.822,17.9966667 L15.822,9.89361111 L18.8825714,9.89361111 L18.8825714,20.8427778 Z M10.2288571,20.2363889 L7.16857143,21.8480556 L7.16857143,11.3116667 L10.2288571,11.3116667 L10.2288571,20.2363889 Z" opacity=".5"/>
  </g>
</svg>
